src/24x24/places/folder-gruvbox-material-purple-vmware.svg

<svg xmlns="http://www.w3.org/2000/svg" width="24" height="24" version="1">
 <rect style="opacity:0.2" width="20" height="12" x="2" y="9.5" rx="1" ry="1"/>
 <path style="fill:#945e80" d="M 2,17 C 2,17.554 2.446,18 3,18 H 21 C 21.554,18 22,17.554 22,17 V 6 C 22,5.446 21.554,5 21,5 H 12 C 10.5,5 10,3 8.5,3 H 3 C 2.446,3 2,3.446 2,4"/>
 <path style="opacity:0.1;fill:#E5DFC8" d="M 3,3 C 2.446,3 2,3.446 2,4 V 4.5 C 2,3.946 2.446,3.5 3,3.5 H 8.5 C 10,3.5 10.5,5.5 12,5.5 H 21 C 21.554,5.5 22,5.946 22,6.5 V 6 C 22,5.446 21.554,5 21,5 H 12 C 10.5,5 10,3 8.5,3 Z"/>
 <rect style="opacity:0.2" width="20" height="12" x="2" y="8.5" rx="1" ry="1"/>
 <rect style="fill:#E5DFC8" width="16" height="8" x="4" y="7" rx="1" ry="1"/>
 <rect style="fill:#d3869b" width="20" height="12" x="2" y="9" rx="1" ry="1"/>
 <path style="fill:#4A413F" d="m 8.5712889,11 c -0.316572,0 -0.5712891,0.254717 -0.5712891,0.571289 v 2.371094 c 0,0.316571 0.1551081,0.572265 0.4716791,0.572265 0.316572,0 0.528321,-0.255693 0.528321,-0.572265 V 12.8465 L 10,13.803711 V 14.5 h 1 V 14.25 C 11,14.1115 11.1115,14 11.25,14 H 11.5 V 13 H 10.803711 L 9.8464999,12 h 1.0958831 c 0.316572,0 0.572265,-0.211749 0.572265,-0.528321 C 11.514648,11.155108 11.258955,11 10.942383,11 Z m 4.4863281,0 c -0.316572,0 -0.572266,0.155108 -0.572266,0.471679 0,0.316572 0.255694,0.528321 0.572266,0.528321 H 14.1535 l -0.957211,1 H 12.5 v 1 h 0.25 c 0.1385,0 0.25,0.1115 0.25,0.25 v 0.25 h 1 V 13.803711 L 15,12.8465 v 1.095883 c 0,0.316571 0.211749,0.572265 0.52832,0.572265 0.316572,0 0.47168,-0.255694 0.47168,-0.572265 V 11.571289 C 16,11.254717 15.745283,11 15.428711,11 Z m 2.470703,4.485351 C 15.211749,15.485351 15,15.741045 15,16.057617 V 17.1535 L 14,16.196289 V 15.5 h -1 v 0.25 C 13,15.8885 12.8885,16 12.75,16 H 12.5 v 1 h 0.696289 L 14.1535,18 H 13.057617 C 12.785004,18 12.557915,18.157551 12.5,18.40332 V 18.5 h 5e-4 c -4.76e-4,0.0095 -0.001,0.01861 -0.001,0.02832 0,0.316571 0.241524,0.471679 0.558096,0.471679 h 2.371093 C 15.745283,19 16,18.745282 16,18.428711 v -2.371094 c 0,-0.316572 -0.155108,-0.572266 -0.47168,-0.572266 z M 10,15.500001 v 0.928711 c 0,0.316571 0.254717,0.571289 0.571289,0.571289 H 11.5 v -1 h -0.25 c -0.1385,0 -0.25,-0.1115 -0.25,-0.25 v -0.25 z"/>
</svg>

<?xml version="1.0" encoding="UTF-8"?>
<svg width="24" height="24" version="1" xmlns="http://www.w3.org/2000/svg">
 <rect x="2" y="9.5" width="20" height="12" rx="1" ry="1" opacity=".2"/>
 <path d="m2 17c0 0.554 0.446 1 1 1h18c0.554 0 1-0.446 1-1v-11c0-0.554-0.446-1-1-1h-9c-1.5 0-2-2-3.5-2h-5.5c-0.554 0-1 0.446-1 1" fill="#945e80"/>
 <path d="m3 3c-0.554 0-1 0.446-1 1v0.5c0-0.554 0.446-1 1-1h5.5c1.5 0 2 2 3.5 2h9c0.554 0 1 0.446 1 1v-0.5c0-0.554-0.446-1-1-1h-9c-1.5 0-2-2-3.5-2z" fill="#E5DFC8" opacity=".1"/>
 <rect x="2" y="8.5" width="20" height="12" rx="1" ry="1" opacity=".2"/>
 <rect x="4" y="7" width="16" height="8" rx="1" ry="1" fill="#E5DFC8"/>
 <rect x="2" y="9" width="20" height="12" rx="1" ry="1" fill="#d3869b"/>
 <path d="m8.5713 11c-0.31657 0-0.57129 0.25472-0.57129 0.57129v2.3711c0 0.31657 0.15511 0.57226 0.47168 0.57226 0.31657 0 0.52832-0.25569 0.52832-0.57226v-1.0959l1 0.95721v0.69629h1v-0.25c0-0.1385 0.1115-0.25 0.25-0.25h0.25v-1h-0.69629l-0.95721-1h1.0959c0.31657 0 0.57226-0.21175 0.57226-0.52832 0-0.31657-0.25569-0.47168-0.57226-0.47168zm4.4863 0c-0.31657 0-0.57227 0.15511-0.57227 0.47168 0 0.31657 0.25569 0.52832 0.57227 0.52832h1.0959l-0.95721 1h-0.69629v1h0.25c0.1385 0 0.25 0.1115 0.25 0.25v0.25h1v-0.69629l1-0.95721v1.0959c0 0.31657 0.21175 0.57226 0.52832 0.57226 0.31657 0 0.47168-0.25569 0.47168-0.57226v-2.3711c0-0.31657-0.25472-0.57129-0.57129-0.57129zm2.4707 4.4854c-0.31657 0-0.52832 0.25569-0.52832 0.57227v1.0959l-1-0.95721v-0.69629h-1v0.25c0 0.1385-0.1115 0.25-0.25 0.25h-0.25v1h0.69629l0.95721 1h-1.0959c-0.27261 0-0.4997 0.15755-0.55762 0.40332v0.09668h5e-4c-4.76e-4 0.0095-1e-3 0.01861-1e-3 0.02832 0 0.31657 0.24152 0.47168 0.5581 0.47168h2.3711c0.31659 1e-6 0.57131-0.25472 0.57131-0.57129v-2.3711c0-0.31657-0.15511-0.57227-0.47168-0.57227zm-5.5283 0.01465v0.92871c0 0.31657 0.25472 0.57129 0.57129 0.57129h0.92871v-1h-0.25c-0.1385 0-0.25-0.1115-0.25-0.25v-0.25z" fill="#4A413F"/>
</svg>
